X:72
T:Polska efter C A Lindblom
R:sl-polska
H:efter Karl August Lindblom, Rejmyre, Skedevi, \"Osterg\"otland
A:\"Osterg\"otland
Z:id:hn-sp-72
M:3/4
L:1/16
K:D
A2BA G2B2 A4 | A2Bc d2A2 GFED | A2BA G2B2 A4 |1 ABcd e2ce d4 :|
[2 ABcd e2ce d2e2 |: f4 fgfe f2a2 | e3f e2d2 e2f2 | g4 gagf g2b2 |
efed c2e2 a4 | a2fa ageg gfdf |1 fece e2d2 d2e2 :|2 fece e2d2 d4 ||

